X: 12200
T: Factory Smoke, The
R: hornpipe
M: 4/4
K: Eminor
|:B>A|G>FE>D E>FG>A|B2 E2 E2 f>e|d>cB>A G>AB>G|AGFE D2 B>A|
G>FE>D E>FG>A|B>e^d>f e2 e>B|c>BA>G A>cB>A|1 G2 E2 E2:|2 G2 E2 E2||
|:e>f|g>eB>G e>BG>E|B>EG>B e>Bg>e|f>dA>F d>AF>D|A>DF>A B>AG>F|
G>FE>D E>FG>A|B>e^d>f e2 e>B|c>BA>G A>cB>A|1 G2 E2 E2:|2 G2 E2 E2||

